packages/icons/src/cube.svg

<svg width="15" height="15" viewBox="0 0 15 15" fill="none" xmlns="http://www.w3.org/2000/svg">
  <path
    fill-rule="evenodd"
    clip-rule="evenodd"
    d="M7.28856 0.796908C7.42258 0.734364 7.57742 0.734364 7.71144 0.796908L13.7114 3.59691C13.8875 3.67906 14 3.85574 14 4.05V10.95C14 11.1443 13.8875 11.3209 13.7114 11.4031L7.71144 14.2031C7.57742 14.2656 7.42258 14.2656 7.28856 14.2031L1.28856 11.4031C1.11252 11.3209 1 11.1443 1 10.95V4.05C1 3.85574 1.11252 3.67906 1.28856 3.59691L7.28856 0.796908ZM2 4.80578L7 6.93078V12.9649L2 10.6316V4.80578ZM8 12.9649L13 10.6316V4.80578L8 6.93078V12.9649ZM7.5 6.05672L12.2719 4.02866L7.5 1.80176L2.72809 4.02866L7.5 6.05672Z"
    fill="currentColor"
  />
</svg>

<svg xmlns="http://www.w3.org/2000/svg" width="15" height="15" fill="none"><path fill="currentColor" fill-rule="evenodd" d="M7.289.797a.5.5 0 0 1 .422 0l6 2.8A.5.5 0 0 1 14 4.05v6.9a.5.5 0 0 1-.289.453l-6 2.8a.5.5 0 0 1-.422 0l-6-2.8A.5.5 0 0 1 1 10.95v-6.9a.5.5 0 0 1 .289-.453zM2 4.806 7 6.93v6.034l-5-2.333zm6 8.159 5-2.333V4.806L8 6.93zm-.5-6.908 4.772-2.028L7.5 1.802 2.728 4.029z" clip-rule="evenodd"/></svg>
